X:201
T:Toss the Feathers (reel) 
B:CRE1.195 (Craith na Cleiteacha)
F:file ID: cre.1/201toss_f
N:Interesting version of an old favorite!
Q:180
L:1/8
M:4/4
R:reel
K:Em
E3G B2BA|EBB2 AGFD|E2EG B3^c|d2e^c dBAF|
EB B2 B2 BA|EB B2 AGFD|E3B BAB^c|dfe^c dBAd||
Beee e3g|fede fedf|g3e f3g|afdf afdf|
gb ~b2 fa ~a2|egfe dBAF|G2 GF GAB^c|d^cdB AGFD||

%%%

